--- Ritmos básicos
-- bombo caja simple con charles simple
d1 $ sound "[808bd 808sd]"

d2 $ sound "[808oh*4]" # gain "[0.8 0.7]*2"

-- bombo nivel2 simple con charles simple
d1 $ sound "<[808bd 808sd] [808bd [~ 808bd] 808sd ~]>"

d2 $ sound "[808oh*4]" # gain "[0.8 0.7]*2"

--- Ritmo a contratempo
-- bombo y caja a contratempo en 2 y 4, charles a tempo en 1 y 3
d1 $ sound "[~ 808bd ~ 808sd]"

d2 $ sound "[808oh ~ 808oh ~]" # gain "[0.8 ~ 0.7 ~]"

